svgs/light/right.svg

<svg xmlns="http://www.w3.org/2000/svg" viewBox="0 0 448 512"><!-- Font Awesome Pro 6.0.0-alpha2 by @fontawesome - https://fontawesome.com License - https://fontawesome.com/license (Commercial License) --><path d="M32 336H208V416C208 433.686 222.363 448 239.996 448C248.322 448 256.502 444.748 262.625 438.625L438.625 278.625C444.875 272.375 448 264.188 448 256S444.875 239.625 438.625 233.375L262.625 73.375C256.5 67.252 248.322 64 239.996 64C222.383 64 208 78.297 208 96V176H32C14.326 176 0 190.326 0 208V304C0 321.672 14.326 336 32 336ZM32 208H240L241.1 97.053L415.941 256L240 415.996V304H32V208Z"/></svg>

<svg xmlns="http://www.w3.org/2000/svg" viewBox="0 0 448 512"><!--! Font Awesome Pro 6.3.0 by @fontawesome - https://fontawesome.com License - https://fontawesome.com/license (Commercial License) Copyright 2023 Fonticons, Inc. --><path d="M32 336h176V416c0 17.69 14.36 32 31.1 32c8.326 0 16.51-3.252 22.63-9.375l176-160C444.9 272.4 448 264.2 448 256s-3.125-16.38-9.375-22.62l-176-160C256.5 67.25 248.3 64 239.1 64C222.4 64 208 78.3 208 96v80H32c-17.67 0-32 14.33-32 32v96C0 321.7 14.33 336 32 336zM32 208h208l1.1-110.9L415.9 256L240 415.1V304H32V208z"/></svg>
